KINDER
CUT[ADAM HATTE SIEBEN SOEHNE]
REG[Europa, Mitteleuropa, Deutschland, Kassel]
KEY[K2237  16  C 2/4]
MEL[  5_5_6_6_  5_4_3_
    1_  5_5_6_6_  5__3_
    6_  5_4_3_6_  5_4_3_
    1_  5_5_6_6_  5_4_3__
    5_5_6_6_  5_4_3__
    5_5_6_6_  5_4_3__
    5_5_6_6_  5_4_3__
    5_5_6_6_  5_4_3_
    6_  5_4_3_6_  5_4_3_
    1_  5_5_6_6_  5__3_
    1_  5_5_6_6_  5_4_3_
    1_  555_6_6_  5__3__ //] >>
FCT[Kinder - Lied, Reigen, Tanz, Nachahmungs - Spiel, Pantomime]
